X:72
T:Jackson's Slipper
T:Killashandra Lasses, The
R:jig
D:Skylark: Skylark.
Z:id:hn-jig-72
M:6/8
K:G
~G3 BAG|dBG BAG|~A3 ABd|ecA AGE|~G3 BAG|dBG BAG|AGA BdB|1 GEE E2D:|2 GEE E2d||
efg fed|efg dBG|~A3 ABd|ecA A2d|efg fed|efg dBG|AGA BdB|GEE E2d|
efg fed|efg dBG|~A3 ABd|ecA A2a|bag agf|gfe dBG|AGA BdB|GEE E2d||

